brandFactory_export/2.Regular/Alerta_2Regular.svg

<?xml version="1.0" encoding="UTF-8"?>
<svg width="24px" height="24px" viewBox="0 0 24 24" version="1.1" xmlns="http://www.w3.org/2000/svg" xmlns:xlink="http://www.w3.org/1999/xlink">
    <title>2.Regular/Alerta_2Regular</title>
    <g id="Symbols" stroke="none" stroke-width="1" fill="none" fill-rule="evenodd">
        <g id="2.Regular/Alerta_2Regular" fill="#5CB615" fill-rule="nonzero">
            <path d="M11.6907563,0.00672268908 C12,0.00672268908 12.2756303,0.188235294 12.4302521,0.494117647 L23.5058824,22.410084 C23.5058824,22.410084 23.5058824,22.4134454 23.5092437,22.4134454 C23.6504202,22.6991597 23.6436975,23.0184874 23.4857143,23.2672269 C23.3310924,23.5159664 23.0487395,23.6672269 22.7327731,23.6672269 L0.887394958,23.6672269 C0.571428571,23.6672269 0.28907563,23.5193277 0.134453782,23.2672269 C-0.0201680672,23.0184874 -0.0302521008,22.6991597 0.107563025,22.4134454 L10.9512605,0.497478992 C11.1058824,0.188235294 11.3815126,0.00672268908 11.6907563,0.00672268908 Z M11.697479,1.95966387 L1.61008403,22.3495798 L22,22.3495798 L11.697479,1.95966387 Z M11.8252101,19.0319328 C12.2487395,19.0319328 12.4907563,19.2739496 12.4907563,19.697479 C12.4907563,20.1210084 12.2453782,20.3630252 11.8252101,20.3630252 C11.405042,20.3630252 11.1596639,20.1210084 11.1596639,19.697479 C11.1596639,19.2739496 11.4016807,19.0319328 11.8252101,19.0319328 Z M11.8252101,7.24033613 C12.1882353,7.24033613 12.4840336,7.53613445 12.4840336,7.89915966 L12.4840336,17.1563025 C12.4840336,17.5193277 12.1882353,17.8151261 11.8252101,17.8151261 C11.4621849,17.8151261 11.1663866,17.5193277 11.1663866,17.1563025 L11.1663866,7.89915966 C11.1663866,7.53613445 11.4621849,7.24033613 11.8252101,7.24033613 Z" id="Alerta_2Regular"></path>
        </g>
    </g>
</svg>

<svg width="24" height="24" viewBox="0 0 24 24" xmlns="http://www.w3.org/2000/svg"><path d="M11.69.007c.31 0 .586.181.74.487L23.506 22.41s0 .003.003.003a.866.866 0 01-.023.854.875.875 0 01-.753.4H.887a.868.868 0 01-.753-.4.883.883 0 01-.026-.854L10.95.497c.155-.309.43-.49.74-.49zm.007 1.953L1.61 22.35H22L11.697 1.96zm.128 17.072c.424 0 .666.242.666.665 0 .424-.246.666-.666.666-.42 0-.665-.242-.665-.666 0-.423.242-.665.665-.665zm0-11.792a.66.66 0 01.659.66v9.256a.66.66 0 01-1.318 0V7.9a.66.66 0 01.66-.659z" fill="#5CB615" fill-rule="nonzero"/></svg>
